**kern	**silbe
*ICvox	*
*E:	*
*M4/4	*
*clefG2	*
r;	.
=1	=1
1r	.
=2	=2
1r	.
=3	=3
1r	.
=4	=4
1r	.
=5	=5
1r	.
=6	=6
1r	.
=7	=7
1r	.
=8	=8
1r	.
=9	=9
1r	.
=10	=10
1r	.
=11	=11
1r	.
=12	=12
1r	.
=13	=13
1r	.
=14	=14
1r	.
=15	=15
2r	.
4r	.
4g	One
=16	=16
8g	foot
8g	on
8e	the
8g	brake,
4r	.
8r	.
8d	and
=17	=17
8e	one
8e	on
8d	the
8e	gas
4r	.
4cc#	hey!
=18	=18
1r	.
=19	=19
1r	.
=20	=20
1r	.
=21	=21
2r	.
8r	.
8g	Well,
4g	there's
=22	=22
4g	too
4e	much
8e	tra-
8c#	-ffic,
8r	.
8g	I
=23	=23
8r	.
8g	can't
8r	.
[8g	pass,
4g]	_
4e	no!
=24	=24
1r	.
=25	=25
2r	.
8r	.
8b	So
4b	I
=26	=26
4b	tried
4e	my
4e	best
8r	.
8c#	il-
=27	=27
8e	-le-
[8e	-gal
8e]	_
[8g	move,
8g]	_
8c#	well
8e	ba-
8c#	-by,
=28	=28
6g	black
6g	and
6g	white,
8r	.
8g	come
8g	and
[8a	touched
=29	=29
8a]	_
8a	my
8g	_
[8a	groove
4a]	_
8g#	a-
[8b	-gain!
=30	=30
1b_	_
=31	=31
8b]	_
8r	.
4r	.
8r	.
8b	I'm
8b	gon-
8g	-na
=32	=32
4a	write
4a	me
8a	up
8g	a
4a	one
=33	=33
8r	.
8a	twen-
8g	-ty
8a	five,
2r	.
=34	=34
4e	post
4e	my
4e	face
8g	wan-
8e	-ted
=35	=35
8g	dead
8g	or
8e	a-
8g	-live,
2r	.
=36	=36
4a	take
4a	my
8a	li-
8g	-cense,
8r	.
[8a	all
=37	=37
8a]	_
8a	that
8g	_
8a	jive,
4r	.
8r	.
8b	I
=38	=38
2r	.
4a	can't
8r	.
[8b	drive
=39	=39
4b]	_
4r	.
4dd	fif-
8b	-ty
[8b	five!
=40	=40
8b]	_
8r	.
4r	.
2r	.
=41	=41
1r	.
=42	=42
2r	.
8r	.
[8b	Oh,
8b]	_
[8b	no!
=43	=43
4b]	_
4r	.
2r	.
=44	=44
4g#	Uh!
4r	.
2r	.
=45	=45
1r	.
=46	=46
1r	.
=47	=47
1r	.
=48	=48
1r	.
=49	=49
1r	.
=50	=50
1r	.
=51	=51
2r	.
8r	.
8b	So
4b	I
=52	=52
4e	signed
4e	my
8e	name
8d	on
8e	num-
8d	-ber
=53	=53
8r	.
8g	twen-
8e	-ty
[8g	four,
4g]	_
4g	hey!
=54	=54
1r	.
=55	=55
1r	.
=56	=56
1r	.
=57	=57
2r	.
8r	.
8b	Yeah
8b	the
[8b	judge
=58	=58
4b]	_
4b	said,
4.b	boy,
[8e	just
=59	=59
8d#	_
16gQ	_
[8g#	one
8g#]	_
[8d	more...
4d]	_
4e]	huh!
=60	=60
1r	.
=61	=61
2r	.
8r	.
8b	We're
8b	gon-
8a	-na
=62	=62
4b	throw
4e	your
4e	ass
8e	in
8d	the
=63	=63
8r	.
16g	ci-
[16e	-ty
8e]	_
8g	joint
4r	.
8r	.
[8a	Looked
=64	=64
8a]	_
8a	me
8a	in
8g	the
4a	eye,
4c#	said
=65	=65
8r	.
8a	you
8a	get
8a	my
8a	point?
8a	I
8a	said,
[8b	yeah
=66	=66
1b]	_
=67	=67
4dd	oh,
4a	yeah!
2r	.
=68	=68
4a	Write
4a	me
8a	up
8g	a
4a	one
=69	=69
8r	.
8a	twen-
8g	-ty
8a	five,
2r	.
=70	=70
4e	post
4e	my
4e	face
8g	wan-
8e	-ted
=71	=71
8g	dead
8g	or
8e	a-
8g	-live.
2r	.
=72	=72
4a	Take
4a	my
8a	li-
8e	-cense,
8r	.
[8a	all
=73	=73
8a]	_
[8cc	that
8cc]	_
[8g	jive,
8g]	_
8r	.
8r	.
8b	I
=74	=74
2r	.
4b	can't
8r	.
[8b	drive
=75	=75
4b]	_
4r	.
4dd	fif-
8b	-ty
[8b	five!
=76	=76
1b_	_
=77	=77
2b]	_
8e	_
8cc#	Oh,
4b	yeah!
=78	=78
2r	.
4f#	I
4f#	can't
=79	=79
4f#	drive
4r	.
4f#	fif-
8f#	-ty
[8g#	five!
=80	=80
8g	_
8g#]	_
4r	.
2r	.
=81	=81
1r	.
=82	=82
2r	.
4f#	I
4f#	can't
=83	=83
4f#	drive
4r	.
4f#	fif-
8f#	-ty
[8g#	five!
=84	=84
8g	_
8g#]	_
4r	.
2r	.
=85	=85
1r	.
=86	=86
2r	.
4f#	I
4f#	can't
=87	=87
4f#	drive
4r	.
4f#	fif-
8f#	-ty
[8g#	five!
=88	=88
8g	_
8g#]	_
4r	.
2r	.
=89	=89
1r	.
=90	=90
2r	.
4f#	I
4f#	can't
=91	=91
4f#	drive
4r	.
4a	fif-
8a	-ty
[8b	five!
=92	=92
2.b]	_
4r	.
=93	=93
1r	.
=94	=94
1r	.
=95	=95
2r	.
4r	.
4b	Uh!
=96	=96
1r	.
=97	=97
1r	.
=98	=98
1r	.
=99	=99
2r	.
8r	.
8b	When
4b	I
=100	=100
4b	drive
4e	that
8e	slow,
8c#	you
8e	know
8c#	it's
=101	=101
4g	hard
8e	to
[8g	steer.
4g]	_
4r	.
=102	=102
1r	.
=103	=103
2r	.
8r	.
8b	And
8b	I
[8b	can't
=104	=104
4b]	_
8b	get
8b	my
4b	car
8b	out
8a	of
=105	=105
8r	.
8b	se-
8a	-cond
[8b	gear
4b]	_
4r	.
=106	=106
1r	.
=107	=107
2r	.
8r	.
8b	What
8b	used
8a	to
=108	=108
4b	take
4e	two
8e	ho-
8d	-urs
8r	.
[8g	now
=109	=109
16g]	_
8.g	takes
8.g	all
[16g	day
4g]	_
4r	.
=110	=110
2r	.
8r	.
8a	It
8a	took
8g	me
=111	=111
4a	six-
4a	-teen
8a	ho-
8g	-urs
8c#	to
[8b	get
=112	=112
8b]	_
8b	to
8b	L
[8b	A!
2b_	_
=113	=113
2b]	_
8r	.
8b	Go
8b	on
8g#	and
=114	=114
4a	write
4a	me
8a	up
8g	a
4a	one
=115	=115
8r	.
8a	twen-
8g	-ty
8a	five,
2r	.
=116	=116
4e	post
4e	my
4e	face
8g	want-
8e	-ed
=117	=117
8g	dead
8g	or
8e	a-
8g	-live.
2r	.
=118	=118
4a	Take
4a	my
8a	li-
8g	-cense
8c#	n-
[8a	-all
=119	=119
8a]	_
[8cc	that
8cc]	_
[8g	jive
8g]	_
8r	.
8r	.
8b	I
=120	=120
2r	.
4b	can't
8r	.
[8b	drive
=121	=121
4b]	_
4r	.
4dd	fif-
8b	-ty
[8b	five!
=122	=122
1b_	_
=123	=123
4b]	_
4r	.
2r	.
=124	=124
2r	.
8r	.
[8b	No,
8b]	_
[8b	no,
=125	=125
8b]	_
[8b	no,
8b]	_
[8b	I
8b]	_
[8b	can't
8b]	_
[8b	drive!
=126	=126
8b]	_
8r	.
4r	.
4g b dd	I
4g b dd	can't
=127	=127
4g b cc#	drive
4r	.
4g b dd	fif-
8f# a cc#	-ty
8f# a cc#	five!
=128	=128
4e g b	_
4r	.
2r	.
=129	=129
4r	.
8r	.
[8b	I
8b]	_
[8b	can't
8b]	_
[8b	drive
=130	=130
8b]	...
8r	.
4r	.
4g b dd	I
4g b dd	can't
=131	=131
4g b cc#	drive
4r	.
4g b dd	fif-
8f# a cc#	-ty
8f# a cc#	five!
=132	=132
4e g b	_
4r	.
2r	.
=133	=133
1r	.
=134	=134
2r	.
4g b dd	I
4g b dd	can't
=135	=135
4g b cc#	drive
4r	.
4g b dd	fif-
8f# a cc#	-ty
8f# a cc#	five!
=136	=136
4e g b	_
4r	.
2r	.
=137	=137
1r	.
=138	=138
2r	.
4g b dd	I
4g b dd	can't
=139	=139
4g b cc#	drive
4r	.
4g b dd	fif-
8f# a cc#	-ty
8f# a cc#	five!
=140	=140
4e g b	_
4r	.
2r	.
=141	=141
1r	.
r;	.
r;	.
*-	*-
!!!ENC: Nathaniel Condit-Schultz